X: 1266
T: Korkma, Sönmez...
C: Zeki Üngör
O: Turkey
F: http://compmusic.upf.edu/node/140
N: nihavent--mars--sofyan--istiklal_marsi--zeki_ungor
N: makam= nihavent
N: form= mars
N: usul= sofyan = 4/4
M: 4/4
L: 1/16
K: C _B _e  
Q: 1/4=84
%%MIDI tuningsystem comma53
^F6FF F6FF  | ^F2F2 F2F2 F4 D4  | G4 A4 B4 ^F3A  | \
w:  SAZ  |  *  *  *  *  *  Kork  |  ma  sön mez  bu  şa  | 
G12 G4  | c4 d4 e3d =B3d  | 
w:  fak lar  |  da  yü zen  *  al san  | 
c12 (3d2^c2d2  | A4 A7c B3^F  | G3A B3c d3e f3g  | \
w:  cak   Sön me den   |  yur du mun  üs tün  |  de  tü ten  en  son  o cak   O   | 
f4 (3F2=E2F2 d4 c4  | 
w:  be nim  *  mil le ti  | 
B12 (3D2^C2D2  | A4 D4 d3c (3B2A2B2  | \
w:  min  yıl dı zı  |  dır  par la ya cak   O  be  | 
G4 g7f e3d  | c3B A3G d4 D4  | 
w:  nim dir  o  be nim   |  mil le ti min dir  an  | 
G12 D4  | G4 A4 B4 ^F3A  | G12 G4  | c4 d4 e3d =B3d  | \
w:  cak   Çat  |  ma  kur ban  o la  |  yım  çeh  |  re ni  ey  naz lı  hi  | 
c12 (3d2^c2d2  | A4 A7c B3^F  | 
w:  lal   Kah ra man   |  ır kı ma  bir  gül   | 
G3A B3c d3e f3g  | f4 (3F2=E2F2 d4 c4  | \
w:  ne  bu  şid det  bu  ce lâl   Sa  |  na  ol *  maz  dö kü  | 
B12 (3D2^C2D2  | A4 D4 d3c (3B2A2B2  | 
w:  len  kan la rı  |  mız  son ra  he lâl   Hak kı  | 
G4 g7f e3d  | c3B A3G d4 D4  | G12 z4  | |


